X:1
T:Eastcote, 10.10.11.10
T:Eastcote, 10.10.11.10
T:James Henry Fillmore, Sr., 1874
T:Public Domain Courtesy of the Cyber Hymnal™
C:James Henry Fillmore, Sr., 1874
Z:Public Domain
Z:Courtesy of the Cyber Hymnal™
%%score 1 ( 2 3 )
L:1/8
Q:1/4=92
M:2/4
K:Ab
V:1 treble 
V:2 bass 
V:3 bass 
V:1
 [Ec]2 [DB][CA] | [DG][DF] [CE]2 | [EA]2 [FB]>[FB] | [Ec]4 | [Ec]2 [DB][CA] | [EG][DF] [CE]2 | %6
 [EA]2 [EB]>[DB] | [CA]4 [Ee]2 [Ed][Ec] | [EB][Ec] [Ed]2 | [Ed]2 [Ec][EB] | [EA][Ec] [EB]2 | %11
 [Ec]2 [DB][CA] | [EG][DF] ([CE][EA]) | [EB]2 [Ec]>[DB] | [CA]4 |] x4 |] %16
V:2
 A,2 A,A, | [D,A,][D,A,] [A,,A,]2 | [C,A,]2 [E,G,]>[E,G,] | A,4 | A,2 A,A, | %5
 [C,A,][D,A,] [A,,A,]2 | [C,A,]2 [E,G,]>[E,G,] | [A,,A,]4 x4 | [A,C]2 [G,B,]A, | %9
 [E,G,][E,A,] [E,B,]2 | [E,B,]2 [E,A,][D,G,] | [C,A,][B,,A,] [E,G,]2 | A,2 A,A, | %13
 [C,A,][D,A,] A,2 | [E,G,]2 [E,A,]>E, |] [A,,E,]4 |] %16
V:3
 A,2 A,A, | x4 | x4 | A,4 | A,2 A,A, | x4 | x4 | x8 | x3 A, | x4 | x4 | x4 | A,2 A,A, | %13
 x2 (A,,C,) | x7/2 E,/ |] x4 |] %16

